src/pos-icons/slope-downhill.svg

<svg height="24" viewBox="0 0 24 24" width="24" xmlns="http://www.w3.org/2000/svg"><path d="m22 19v3h-20v-9zm-2.91-11.5-.84 2.76-10.12-3c-.07-1.6-1.43-2.84-3.03-2.76-1.6.07-2.84 1.43-2.76 3.03.07 1.6 1.43 2.83 3.03 2.76.87-.04 1.68-.47 2.2-1.18l10.12 3-.84 2.78 4.82-2.6z"/></svg>

<?xml version="1.0" encoding="UTF-8"?><!DOCTYPE svg PUBLIC "-//W3C//DTD SVG 1.1//EN" "http://www.w3.org/Graphics/SVG/1.1/DTD/svg11.dtd"><svg xmlns="http://www.w3.org/2000/svg" xmlns:xlink="http://www.w3.org/1999/xlink" version="1.1" id="mdi-slope-downhill" width="24" height="24" viewBox="0 0 24 24"><path d="M22,19V22H2V13L22,19M19.09,7.5L18.25,10.26L8.13,7.26C8.06,5.66 6.7,4.42 5.1,4.5C3.5,4.57 2.26,5.93 2.34,7.53C2.41,9.13 3.77,10.36 5.37,10.29C6.24,10.25 7.05,9.82 7.57,9.11L17.69,12.11L16.85,14.89L21.67,12.29L19.09,7.5Z" /></svg>
